src/images/logo4.svg

<svg width="90" height="34" viewBox="0 0 90 34" fill="none" xmlns="http://www.w3.org/2000/svg">
<path d="M61.3047 19.3118L62.2025 19.5783C62.1426 19.8301 62.0528 20.0374 61.9182 20.2003C61.7835 20.3632 61.6339 20.4965 61.4393 20.5705C61.2448 20.6594 61.0054 20.7038 60.7061 20.7038C60.347 20.7038 60.0627 20.6594 59.8233 20.5557C59.5988 20.452 59.4043 20.2743 59.2397 20.0078C59.0751 19.756 58.9854 19.4155 58.9854 19.0156C58.9854 18.4825 59.135 18.0679 59.4193 17.7717C59.7036 17.4756 60.1226 17.3423 60.6463 17.3423C61.0652 17.3423 61.3795 17.4311 61.6189 17.594C61.8583 17.7569 62.0379 18.0087 62.1426 18.3641L61.2448 18.5566C61.2149 18.4529 61.185 18.3789 61.1401 18.3344C61.0802 18.2604 61.0204 18.2012 60.9306 18.1567C60.8408 18.1123 60.751 18.0975 60.6612 18.0975C60.4368 18.0975 60.2572 18.1864 60.1375 18.3789C60.0477 18.5121 60.0029 18.7343 60.0029 19.0156C60.0029 19.371 60.0627 19.6228 60.1674 19.756C60.2722 19.8893 60.4368 19.9634 60.6313 19.9634C60.8258 19.9634 60.9755 19.9041 61.0652 19.8005C61.185 19.6672 61.2598 19.5191 61.3047 19.3118Z" fill="#225E63"/>
<path d="M62.5615 19.0138C62.5615 18.4807 62.7112 18.0661 63.0104 17.7699C63.3097 17.4738 63.7287 17.3257 64.2673 17.3257C64.821 17.3257 65.24 17.4738 65.5392 17.7551C65.8385 18.0513 65.9881 18.4511 65.9881 18.9842C65.9881 19.3692 65.9283 19.6802 65.7936 19.9171C65.6589 20.1541 65.4794 20.3466 65.225 20.4799C64.9856 20.6131 64.6713 20.6872 64.3122 20.6872C63.9381 20.6872 63.6389 20.6279 63.3845 20.5095C63.1451 20.391 62.9506 20.2133 62.786 19.9468C62.6214 19.6802 62.5615 19.3989 62.5615 19.0138ZM63.579 19.0138C63.579 19.3396 63.6389 19.5766 63.7586 19.7246C63.8783 19.8727 64.0429 19.9468 64.2673 19.9468C64.4918 19.9468 64.6564 19.8727 64.7761 19.7394C64.8958 19.5914 64.9557 19.3396 64.9557 18.9842C64.9557 18.6732 64.8958 18.4511 64.7611 18.3178C64.6414 18.1698 64.4619 18.1105 64.2524 18.1105C64.0429 18.1105 63.8783 18.1846 63.7586 18.3327C63.6389 18.4511 63.579 18.6881 63.579 19.0138Z" fill="#225E63"/>
<path d="M66.5119 17.3848H67.8436L68.3524 19.3691L68.8611 17.3848H70.1928V20.6426H69.3549V18.1548L68.7115 20.6426H67.9633L67.3199 18.1548V20.6426H66.4819V17.3848H66.5119Z" fill="#225E63"/>
<path d="M70.8513 17.3848H72.5422C72.9163 17.3848 73.1856 17.4736 73.3652 17.6513C73.5447 17.829 73.6345 18.0659 73.6345 18.3917C73.6345 18.7175 73.5298 18.9841 73.3352 19.1618C73.1407 19.3543 72.8265 19.4431 72.4225 19.4431H71.8688V20.6574H70.8513V17.3848ZM71.8688 18.7768H72.1232C72.3177 18.7768 72.4524 18.7471 72.5422 18.6731C72.617 18.5991 72.6619 18.525 72.6619 18.4213C72.6619 18.3177 72.632 18.2288 72.5571 18.1548C72.4823 18.0808 72.3626 18.0511 72.1681 18.0511H71.8838L71.8688 18.7768Z" fill="#225E63"/>
<path d="M74.1731 17.3848H75.1906V19.843H76.7767V20.6426H74.1731V17.3848Z" fill="#225E63"/>
<path d="M77.2854 17.3848H78.3029V20.6426H77.2854V17.3848Z" fill="#225E63"/>
<path d="M81.0563 20.0949H79.9041L79.7395 20.628H78.707L79.949 17.3701H81.0563L82.2982 20.628H81.2358L81.0563 20.0949ZM80.8468 19.3989L80.4877 18.229L80.1285 19.3989H80.8468Z" fill="#225E63"/>
<path d="M82.6124 17.3848H83.5551L84.7971 19.1914V17.3848H85.7547V20.6426H84.7971L83.5701 18.8508V20.6426H82.6124V17.3848Z" fill="#225E63"/>
<path d="M86.2036 17.3848H89.301V18.1844H88.2686V20.6426H87.251V18.1844H86.2186L86.2036 17.3848Z" fill="#225E63"/>
<path d="M49.0647 22.3458L52.0125 21.4277L51.0548 19.3249C50.3516 20.1986 49.6483 21.324 49.0647 22.3458ZM48.0622 12.7352L42.2863 0L0 2.36934L11.7163 34L34.266 26.966C32.8295 24.9225 32.3058 22.4939 33.9667 21.3092C35.8222 19.9765 38.6203 21.5165 40.401 23.6934C42.1217 20.8502 46.9549 14.2308 48.0622 12.7352Z" fill="#225E63"/>
<path d="M40.969 9.20328C42.7347 9.20328 44.1711 7.87053 44.1711 6.21199C44.1711 4.55346 42.7347 3.2207 40.969 3.2207C39.2033 3.2207 37.7668 4.55346 37.7668 6.21199C37.7668 7.85572 39.2033 9.20328 40.969 9.20328ZM38.3504 10.4916H43.5876V24.0413H38.3504V10.4916Z" fill="#FEFEFE"/>
<path d="M35.7617 14.4457C35.8066 14.4605 35.8365 14.4457 35.8365 14.4012V10.9657C35.8365 10.9213 35.8066 10.8768 35.7617 10.8472C35.7617 10.8472 35.0734 10.403 32.9785 10.2845C32.8738 10.2253 31.0333 10.2105 30.5395 10.2845C22.9082 10.8916 22.6239 16.3559 22.6239 16.5929V17.9256C22.6239 18.0885 22.6239 23.6713 30.5395 24.1599C31.3176 24.2192 32.8289 24.1599 32.9785 24.1599C34.804 24.1599 36.061 23.612 36.061 23.612C36.1059 23.5972 36.1358 23.5528 36.1358 23.5084V20.295C36.1358 20.2505 36.1059 20.2357 36.0759 20.2653C36.0759 20.2653 35.5073 20.7096 33.0234 20.9613C32.3201 21.0354 31.976 21.0058 31.7216 20.9613C28.1903 20.369 28.0257 17.822 28.0257 17.822C28.0257 17.7775 28.0107 17.7035 28.0107 17.6739V16.6965C28.0107 16.6521 28.0107 16.5781 28.0257 16.5484C28.0257 16.5484 28.2651 13.8089 31.7216 13.5127H33.0234C34.5347 13.7052 35.7617 14.4457 35.7617 14.4457Z" fill="#FEFEFE"/>
<path d="M8.07959 23.997C8.07959 24.0414 8.10952 24.071 8.15441 24.071H13.2569C13.3018 24.071 13.3317 24.0414 13.3317 23.997V20.0579C13.3317 20.0135 13.3616 19.9839 13.4065 19.9839C13.4065 19.9839 21.5615 20.5614 21.5615 15.1564C21.5615 10.8767 16.4441 10.4177 14.7682 10.4917C14.7383 10.4917 8.15441 10.4917 8.15441 10.4917C8.10952 10.4917 8.07959 10.5213 8.07959 10.5658V23.997ZM13.2419 16.9778V13.4386H14.4989C14.4989 13.4386 16.3094 13.5126 16.459 14.7417C16.489 14.8306 16.489 15.4377 16.459 15.4673C16.2196 16.9037 14.6485 16.9778 14.6485 16.9778H13.2419Z" fill="#FEFEFE"/>
<path d="M41.1192 30.5792C41.5382 30.5792 41.8674 30.5792 42.4061 30.3423C44.2615 29.3797 50.5312 14.2308 57.1449 9.56612C57.1898 9.53651 57.2347 9.49208 57.2647 9.44766C57.3095 9.38842 57.3095 9.32919 57.3095 9.32919C57.3095 9.32919 57.3095 9.01821 56.3369 9.01821C50.4563 8.85532 44.3363 21.0722 41.1192 25.8997C41.0743 25.959 40.8649 25.8997 40.8649 25.8997C40.8649 25.8997 38.7101 23.3823 36.8397 22.4198C36.7948 22.405 36.5853 22.3309 36.3609 22.3457C36.2113 22.3457 35.3434 22.5234 34.9394 22.9381C34.4606 23.4416 34.4755 23.7229 34.4755 24.3301C34.4755 24.3745 34.5054 24.5818 34.5653 24.6855C35.0292 25.4851 37.1091 28.3283 38.8298 29.898C39.0842 30.0905 39.4882 30.5792 41.1192 30.5792Z" fill="#2BBC5D"/>
<path d="M58.8806 4.99023H63.7736C64.7462 4.99023 65.5243 5.12351 66.1079 5.37525C66.7064 5.6418 67.2002 6.01201 67.5743 6.48588C67.9634 6.97455 68.2477 7.53727 68.4123 8.17403C68.5918 8.81079 68.6816 9.49198 68.6816 10.2176C68.6816 11.343 68.5469 12.2167 68.2925 12.8387C68.0382 13.4606 67.679 13.9789 67.2152 14.4084C66.7513 14.823 66.2575 15.1043 65.7338 15.2524C65.0156 15.4449 64.3572 15.5338 63.7736 15.5338H58.8806V4.99023ZM62.1725 7.37438V13.1348H62.9806C63.6689 13.1348 64.1627 13.0608 64.447 12.9127C64.7313 12.7646 64.9707 12.4981 65.1353 12.1279C65.2999 11.7577 65.3897 11.1357 65.3897 10.2916C65.3897 9.16619 65.2101 8.41097 64.836 7.99633C64.4619 7.5817 63.8634 7.37438 62.9955 7.37438H62.1725Z" fill="#225E63"/>
<path d="M69.5944 12.054L72.7367 11.8614C72.8115 12.3649 72.9461 12.7499 73.1556 13.0165C73.4998 13.4459 73.9786 13.6533 74.6071 13.6533C75.0709 13.6533 75.445 13.5496 75.6994 13.3275C75.9538 13.1053 76.0884 12.8536 76.0884 12.5722C76.0884 12.3057 75.9687 12.054 75.7293 11.8318C75.4899 11.6097 74.9213 11.4172 74.0385 11.2247C72.587 10.8989 71.5695 10.4695 70.9411 9.93635C70.3126 9.40325 70.0133 8.72207 70.0133 7.8928C70.0133 7.34489 70.1779 6.84141 70.4922 6.35273C70.8064 5.86405 71.2852 5.49384 71.9286 5.21249C72.5721 4.93113 73.4399 4.79785 74.5472 4.79785C75.9089 4.79785 76.9563 5.04959 77.6596 5.55308C78.3778 6.05656 78.7968 6.85621 78.9315 7.95203L75.8191 8.12973C75.7293 7.65587 75.5647 7.31527 75.2954 7.09315C75.0261 6.87102 74.6669 6.76736 74.2031 6.76736C73.814 6.76736 73.5297 6.84141 73.3352 7.0043C73.1407 7.16719 73.0509 7.3597 73.0509 7.59663C73.0509 7.75952 73.1257 7.92242 73.2903 8.05569C73.4399 8.18897 73.814 8.32224 74.3976 8.44071C75.8341 8.75168 76.8665 9.06266 77.495 9.37364C78.1235 9.68461 78.5724 10.0844 78.8567 10.5435C79.141 11.0026 79.2756 11.5357 79.2756 12.1132C79.2756 12.7944 79.0811 13.4163 78.707 13.979C78.3329 14.5566 77.7943 14.986 77.1209 15.2822C76.4476 15.5783 75.5797 15.7264 74.5472 15.7264C72.7367 15.7264 71.4797 15.3858 70.7765 14.6898C70.0881 13.9938 69.6991 13.1202 69.5944 12.054Z" fill="#225E63"/>
<path d="M80.1136 12.054L83.2559 11.8614C83.3308 12.3649 83.4654 12.7499 83.6749 13.0165C84.0191 13.4459 84.4979 13.6533 85.1264 13.6533C85.5902 13.6533 85.9643 13.5496 86.2187 13.3275C86.4731 13.1053 86.6077 12.8536 86.6077 12.5722C86.6077 12.3057 86.488 12.054 86.2486 11.8318C86.0092 11.6097 85.4406 11.4172 84.5577 11.2247C83.1063 10.8989 82.0888 10.4695 81.4603 9.93635C80.8468 9.40325 80.5326 8.72207 80.5326 7.8928C80.5326 7.34489 80.6972 6.84141 81.0114 6.35273C81.3257 5.86405 81.8045 5.49384 82.4479 5.21249C83.0913 4.93113 83.9592 4.79785 85.0665 4.79785C86.4282 4.79785 87.4756 5.04959 88.1789 5.55308C88.8971 6.05656 89.3161 6.85621 89.4508 7.95203L86.3384 8.12973C86.2486 7.65587 86.084 7.31527 85.8147 7.09315C85.5453 6.87102 85.1862 6.76736 84.7223 6.76736C84.3333 6.76736 84.049 6.84141 83.8545 7.0043C83.66 7.16719 83.5702 7.3597 83.5702 7.59663C83.5702 7.75952 83.645 7.92242 83.8096 8.05569C83.9592 8.18897 84.3333 8.32224 84.9169 8.44071C86.3533 8.75168 87.3858 9.06266 88.0143 9.37364C88.6427 9.68461 89.0916 10.0844 89.3759 10.5435C89.6602 11.0026 89.7949 11.5357 89.7949 12.1132C89.7949 12.7944 89.6004 13.4163 89.2263 13.979C88.8522 14.5566 88.3135 14.986 87.6402 15.2822C86.9668 15.5783 86.099 15.7264 85.0665 15.7264C83.2559 15.7264 81.999 15.3858 81.2957 14.6898C80.5925 13.9938 80.2034 13.1202 80.1136 12.054Z" fill="#225E63"/>
</svg>

<svg width="90" height="34" fill="none" xmlns="http://www.w3.org/2000/svg"><path d="M61.305 19.312l.898.266c-.06.252-.15.46-.285.622a1.162 1.162 0 01-.479.37c-.194.09-.434.134-.733.134-.359 0-.643-.045-.883-.148-.224-.104-.419-.282-.583-.548-.165-.252-.255-.592-.255-.992 0-.533.15-.948.434-1.244.285-.296.704-.43 1.227-.43.42 0 .733.09.973.252.24.163.419.415.524.77l-.898.193a.515.515 0 00-.105-.223.61.61 0 00-.21-.177.593.593 0 00-.269-.06.579.579 0 00-.523.282c-.09.133-.135.355-.135.637 0 .355.06.607.164.74.105.133.27.207.464.207.195 0 .344-.059.434-.163a.999.999 0 00.24-.488zm1.257-.298c0-.533.15-.948.448-1.244.3-.296.719-.444 1.257-.444.554 0 .973.148 1.272.43.3.295.45.695.45 1.228 0 .385-.06.696-.195.933a1.38 1.38 0 01-.569.563c-.24.133-.554.207-.913.207-.374 0-.673-.06-.927-.178a1.442 1.442 0 01-.599-.562c-.165-.267-.224-.548-.224-.933zm1.017 0c0 .326.06.563.18.71.12.149.284.223.508.223.225 0 .39-.074.51-.208.119-.148.179-.4.179-.755 0-.31-.06-.533-.195-.666-.12-.148-.3-.208-.509-.208a.6.6 0 00-.493.223c-.12.118-.18.355-.18.68zm2.933-1.629h1.332l.508 1.984.51-1.984h1.33v3.258h-.837v-2.488l-.644 2.488h-.748l-.643-2.488v2.488h-.838v-3.258h.03zm4.339 0h1.691c.374 0 .644.089.823.266.18.178.27.415.27.74 0 .327-.105.593-.3.77-.194.193-.508.282-.912.282h-.554v1.214H70.85v-3.272zm1.018 1.392h.254c.195 0 .33-.03.42-.104.074-.074.119-.148.119-.252a.355.355 0 00-.105-.266c-.075-.074-.194-.104-.389-.104h-.284l-.015.726zm2.304-1.392h1.018v2.458h1.586v.8h-2.604v-3.258zm3.112 0h1.018v3.258h-1.018v-3.258zm3.771 2.71h-1.152l-.164.533h-1.033l1.242-3.258h1.107l1.242 3.258h-1.062l-.18-.533zm-.21-.696l-.358-1.17-.36 1.17h.719zm1.766-2.014h.943l1.242 1.806v-1.806h.958v3.258h-.958L83.57 18.85v1.792h-.958v-3.258zm3.592 0H89.3v.8h-1.032v2.458H87.25v-2.459h-1.032l-.015-.8zm-37.139 4.961l2.948-.918-.958-2.103c-.703.874-1.407 1.999-1.99 3.02zm-1.003-9.61L42.286 0 0 2.37 11.716 34l22.55-7.034c-1.436-2.044-1.96-4.472-.3-5.657 1.856-1.332 4.654.207 6.435 2.384 1.72-2.843 6.554-9.462 7.661-10.958z" fill="#225E63"/><path d="M40.969 9.203c1.766 0 3.202-1.332 3.202-2.991s-1.436-2.991-3.202-2.991-3.202 1.332-3.202 2.991c0 1.644 1.436 2.991 3.202 2.991zm-2.619 1.289h5.238v13.55H38.35v-13.55zm-2.588 3.954c.045.014.075 0 .075-.045v-3.435c0-.045-.03-.09-.075-.119 0 0-.689-.444-2.784-.563-.104-.059-1.945-.074-2.439 0-7.63.608-7.915 6.072-7.915 6.309v1.333c0 .163 0 5.745 7.916 6.234.778.06 2.289 0 2.438 0 1.826 0 3.083-.548 3.083-.548a.111.111 0 00.075-.104v-3.213c0-.045-.03-.06-.06-.03 0 0-.569.445-3.053.696-.703.074-1.047.045-1.301 0-3.532-.592-3.696-3.139-3.696-3.139 0-.044-.015-.119-.015-.148v-.977c0-.045 0-.119.015-.149 0 0 .24-2.74 3.696-3.035h1.301c1.512.192 2.739.933 2.739.933zM8.08 23.997c0 .044.03.074.074.074h5.103c.045 0 .075-.03.075-.074v-3.94c0-.043.03-.073.074-.073 0 0 8.155.577 8.155-4.828 0-4.28-5.117-4.738-6.793-4.664H8.154a.07.07 0 00-.074.074v13.431zm5.162-7.02V13.44h1.257s1.81.074 1.96 1.303c.03.089.03.696 0 .725-.24 1.437-1.81 1.51-1.81 1.51h-1.407z" fill="#FEFEFE"/><path d="M41.12 30.58c.418 0 .747 0 1.286-.238 1.855-.962 8.125-16.111 14.739-20.776a.454.454 0 00.12-.118c.044-.06.044-.119.044-.119s0-.31-.972-.31c-5.88-.164-12 12.053-15.218 16.88-.045.06-.254 0-.254 0s-2.155-2.517-4.025-3.48c-.045-.014-.255-.088-.48-.073-.149 0-1.017.177-1.42.592-.48.504-.465.785-.465 1.392 0 .045.03.252.09.356.464.8 2.544 3.642 4.265 5.212.254.192.658.681 2.29.681z" fill="#2BBC5D"/><path d="M58.88 4.99h4.894c.972 0 1.75.134 2.334.385.598.267 1.092.637 1.466 1.11.39.49.674 1.052.838 1.689.18.637.27 1.318.27 2.044 0 1.125-.135 1.999-.39 2.62a4.342 4.342 0 01-1.077 1.57c-.464.415-.958.696-1.481.844a7.63 7.63 0 01-1.96.282H58.88V4.99zm3.292 2.384v5.76h.809c.688 0 1.182-.073 1.466-.221.284-.148.524-.415.688-.785.165-.37.255-.992.255-1.836 0-1.126-.18-1.881-.554-2.296-.374-.414-.973-.622-1.84-.622h-.824zm7.422 4.68l3.143-.193c.075.504.21.889.419 1.155.344.43.823.637 1.451.637.464 0 .838-.103 1.092-.325.255-.223.39-.474.39-.756 0-.266-.12-.518-.36-.74-.24-.222-.808-.415-1.69-.607-1.452-.326-2.47-.755-3.098-1.289-.628-.533-.928-1.214-.928-2.043 0-.548.165-1.052.48-1.54.313-.489.792-.86 1.436-1.14.643-.282 1.51-.415 2.618-.415 1.362 0 2.41.252 3.113.755.718.504 1.137 1.303 1.272 2.399l-3.113.178c-.09-.474-.254-.815-.524-1.037-.269-.222-.628-.326-1.092-.326-.389 0-.673.074-.868.237a.732.732 0 00-.284.593c0 .163.075.325.24.459.149.133.523.266 1.107.385 1.436.31 2.469.622 3.097.933.629.31 1.077.71 1.362 1.17.284.459.419.992.419 1.57 0 .68-.195 1.302-.569 1.865-.374.578-.913 1.007-1.586 1.303-.673.296-1.541.444-2.574.444-1.81 0-3.067-.34-3.77-1.036-.689-.696-1.078-1.57-1.183-2.636zm10.52 0l3.142-.193c.075.504.21.889.419 1.155.344.43.823.637 1.451.637.464 0 .838-.103 1.093-.325.254-.223.389-.474.389-.756 0-.266-.12-.518-.36-.74-.239-.222-.807-.415-1.69-.607-1.452-.326-2.47-.755-3.098-1.289-.613-.533-.927-1.214-.927-2.043 0-.548.164-1.052.478-1.54.315-.489.794-.86 1.437-1.14.643-.282 1.511-.415 2.619-.415 1.361 0 2.409.252 3.112.755.718.504 1.137 1.303 1.272 2.399l-3.113.178c-.09-.474-.254-.815-.523-1.037-.27-.222-.629-.326-1.093-.326-.389 0-.673.074-.867.237a.732.732 0 00-.285.593c0 .163.075.325.24.459.15.133.523.266 1.107.385 1.436.31 2.469.622 3.097.933.629.31 1.078.71 1.362 1.17.284.459.419.992.419 1.57 0 .68-.195 1.302-.569 1.865-.374.578-.912 1.007-1.586 1.303-.673.296-1.541.444-2.573.444-1.811 0-3.068-.34-3.771-1.036-.704-.696-1.093-1.57-1.182-2.636z" fill="#225E63"/></svg>
